X:1052
T:McGoldrick's
R:reel
H:Also played in D, see #805
Z:id:hn-reel-1052
M:C|
L:1/8
K:C
c2Gc BcGc | Bcde fded | c2Gc BcGE | FDDE FGAB |
c2Gc BcGc | Bcde f2ef | gefd ecdc | BGGE FGAB :|
|: c2ec Gcec | c2eg fdBd | c2ec Gcec | BGGA BcdB |
c2ec Gcec | Bcde f2ef | gefd ecdc | BGGE FGAB :|

